X: 285
T:Tais-toi
M:2/4
L:1/8
Q:1/4=130
C:trad.
O:France
A:Alsace
Z:S. Piron
K:G
d/2e/2d/2c/2|B2B>A|B>A GF|G2G/2A/2B/2c/2|
|:d2d>d|g>f ed|d2d/2e/2d/2c/2|B2B>A|B>A GF|1G2G/2A/2B/2c/2:|2G2dd|
B2B2|BG/2B/2dd|BGdd|B2B2|BG/2B/2dB|AG/2A/2B/2c/2|
|:d2d>d|g>f ed|d2d/2e/2d/2c/2|B2B>A|B>A GF|1G2G/2A/2B/2c/2:|2G2dd|
B2B2|BG/2B/2dd|BGdd|B2B2|BG/2B/2dB|AG/2A/2B/2c/2||
W:
W: From "Falaleiro" http://home.t-online.de/home/pheld/homepage.htm
